X:9
T:Quick Step. WCF.009
M:6/8
L:1/8
Q:3/8=120
S:Wm Clarke MS, Feltwell, 1858
O:England
A:Norfolk
N:The MS shows each section ending in a crotchet, which has been changed
N:to a dotted crotchet
Z:transcription by Lyn Law 04/2006
K:C
“_Key G in MS”c2G ABc|fed ecG|c2G ABc|fed c3:|!
|:dfd ege|fdc BAG|dfd ege|dcB c3:|!
|:EFG ABc|efd ccc|EFG ABc|efd c3:|!
|:g2e f2d|edc Bcd|g2e f2d|efd c3:|]

